svg/pem.svg

<?xml version="1.0" encoding="UTF-8"?>
<svg xmlns="http://www.w3.org/2000/svg" xmlns:xlink="http://www.w3.org/1999/xlink" width="32" height="32" viewBox="0 0 32 32">
<rect x="-3.2" y="-3.2" width="38.4" height="38.4" fill="rgb(100%, 100%, 100%)" fill-opacity="1"/>
<path fill-rule="nonzero" fill="rgb(0%, 0%, 0%)" fill-opacity="1" d="M 32 32 L 0 32 L 0 0 L 32 0 Z M 3.105469 28.800781 L 28.929688 28.800781 L 28.929688 3.199219 L 3.105469 3.199219 M 21.664062 14.753906 L 20.542969 14.753906 L 20.542969 12.511719 C 20.511719 10.015625 18.496094 8 16 8 C 14.804688 8 13.652344 8.472656 12.808594 9.320312 C 11.960938 10.167969 11.484375 11.316406 11.488281 12.511719 L 11.488281 14.753906 L 10.367188 14.753906 C 10.15625 14.75 9.949219 14.832031 9.800781 14.984375 C 9.648438 15.132812 9.5625 15.335938 9.566406 15.550781 L 9.566406 23.230469 C 9.566406 23.679688 9.917969 24.03125 10.367188 24.03125 L 21.664062 24.03125 C 22.113281 24.03125 22.464844 23.679688 22.464844 23.230469 L 22.464844 15.550781 C 22.433594 15.105469 22.082031 14.75 21.664062 14.75 Z M 16.992188 21.121094 C 17.054688 21.375 16.863281 21.632812 16.609375 21.632812 L 15.425781 21.632812 C 15.167969 21.632812 14.976562 21.375 15.039062 21.121094 L 15.425781 19.679688 C 14.964844 19.453125 14.679688 18.980469 14.6875 18.464844 C 14.6875 17.695312 15.296875 17.085938 16.0625 17.085938 C 16.832031 17.085938 17.441406 17.695312 17.441406 18.464844 C 17.441406 19.007812 17.152344 19.457031 16.703125 19.679688 Z M 18.273438 14.753906 L 13.726562 14.753906 L 13.726562 12.511719 C 13.734375 11.257812 14.746094 10.246094 16 10.242188 C 17.253906 10.246094 18.265625 11.257812 18.273438 12.511719 Z M 18.273438 14.753906 "/>
</svg>

<svg role="img" viewBox="0 0 32 32" height="32" width="32" xmlns="http://www.w3.org/2000/svg"><path d="M-3.2-3.2h38.4v38.4H-3.2z" fill="rgb(100%, 100%, 100%)"/><path d="M32 32H0V0h32ZM3.105 28.8H28.93V3.2H3.105m18.56 11.554h-1.122v-2.242C20.512 10.016 18.496 8 16 8a4.505 4.505 0 0 0-4.512 4.512v2.242h-1.12a.772.772 0 0 0-.567.23.77.77 0 0 0-.235.567v7.68c0 .449.352.8.801.8h11.297c.45 0 .8-.351.8-.8v-7.68c-.03-.446-.382-.801-.8-.801Zm-4.673 6.367c.063.254-.129.512-.383.512h-1.183c-.258 0-.45-.258-.387-.512l.387-1.441a1.33 1.33 0 0 1-.739-1.215c0-.77.61-1.38 1.376-1.38.769 0 1.378.61 1.378 1.38 0 .543-.289.992-.738 1.215Zm1.281-6.367h-4.546v-2.242A2.28 2.28 0 0 1 16 10.242a2.28 2.28 0 0 1 2.273 2.27Zm0 0"/></svg>
